X:1
T:Trio No. n29
T:Trio No. 29
T:Allegro non tanto
T:from Organ Trio No. 29 (Krebs-WV 443) arr. for Flute, Oboe and Cello 
T:Johann Ludwig Krebs (1713-1780)
T:Arrangement by Felix Scharpf
T:twoflutes 2019 / Felix Scharpf / https://commons.wikimedia.org/wiki/File:Flute_of_Quantz_(Painting_by_Gerhard)_cropped.jpg
T:twoflutes 2019 / Felix Scharpf / https://commons.wikimedia.org/wiki/File:Flute_of_Quantz_(Painting_by_Gerhard)_cropped.jpg
T:twoflutes 2019 / Felix Scharpf / https://commons.wikimedia.org/wiki/File:Flute_of_Quantz_(Painting_by_Gerhard)_cropped.jpg
T:twoflutes 2019 / Felix Scharpf / https://commons.wikimedia.org/wiki/File:Flute_of_Quantz_(Painting_by_Gerhard)_cropped.jpg
T:twoflutes 2019 / Felix Scharpf / https://commons.wikimedia.org/wiki/File:Flute_of_Quantz_(Painting_by_Gerhard)_cropped.jpg
C:Johann Ludwig Krebs (1713-1780)
Z:twoflutes 2019 / Felix Scharpf / https://commons.wikimedia.org/wiki/File:Flute_of_Quantz_(Painting_by_Gerhard)_cropped.jpg
%%score [ 1 2 3 ]
L:1/8
Q:1/4=80
M:4/4
K:G
V:1 treble nm="Traversflöte" snm="Trv."
V:2 treble nm="Barock Oboe" snm="Bk. Ob."
V:3 bass nm="Gambe" snm="Ga."
V:1
!mf! (B/c/)(B/c/) .d/.G/g- g .f/.g/ .a/(f/d/c/) | (TcB) z2!mp! (B/c/)(B/c/) .d/.G/g- | %2
 g.f/.g/ .a/(f/d/c/) (TcB)!mf! d2- | %3
!<(! d/(e/4d/4c/4d/4B/){B} Mc2- c/(d/4c/4B/4c/4A/) .B/(d/c/B/) | (TBA)!<)! d2- d.c/.d/ .eB- | %5
 B.c g2- g.f/.g/ .a(^c- | cd) b2- b.a/.c'/ b2- | b.a/.c'/ b2- b.a/.b/c'(f- | %8
 fg)!>(! d2- d/.e/(c/B/) c2- | c/.d/(B/A/) B2- B/.c/(A/G/) A2 | %10
 .G/B/(A/G/) (TGF)!>)! z/ (A/B/c/) d2- | d/(=f/e/d/) .b/(d/c/B/) .c/(e/d/c/) .a/(c/B/A/) | %12
 .B/(d/c/B/) .g/(d/c/B/) (TBA) c2- | c(B/c/) .d/.e/!<(! =f2 .e/.^f/ g2- | %14
 g.f/.g/ (ac) (B>c) (BPA/>G/) | .G!<)!!f!(d/e/) (d/B/)(c/A/) .E!mp!.g/.a/ (b/g/)(a/f/) | %16
 .g!mf!.d/.e/!<(! (d/B/)(c/A/) (B/c/)(B/c/) .d/.G/g- | g/(g/=f/e/) .d/(a/g/f/) (e/f/)(e/f/) g2- | %18
 g>!<)!!f!!>(!(_b a/g/=f/e/) f2- f/.=b/(^g/d/) | (Tcd)!mf! .e/.A/!>)!(a/g/) (=f/e/)(^g/a/) (dc) | %20
 (TcB) z2 (c/d/)(c/d/) .e/.A/a- | a^g/a/ .b/(g/e/d/) (Tdc) z2 | %22
!mp! (c/d/)(c/d/) .e/.A/ a2 .^g/.a/ .b/(g/e/d/) | (Tdc) z2!mf! (A/B/)(A/B/) .c/.A/a- | %24
 a/.f/g z2!mp! (B/c/)(B/c/) .d/.G/g- | g.f/.g/ .a/(f/d/c/) (TcB)!<(! d2- | %26
 d/(e/4d/4c/4d/4B/) c2- c/(d/4c/4B/4c/4A/) (B/c/)d- | d/(e/4d/4c/4d/4B/) c2- c/(B/c/d/) (P^d>e) | %28
 e!<)!b-!mf! b/e/(a/g/) (f/a/).d/.c/ Bd- |!>(! d/(G/c/B/) Ae- e/(d/c/B/) .d/(b/a/g/) | %30
 (f/e/d/c/ B/A/G/F/)[Q:1/4=70]"_rit." .G/(e/d/)[Q:1/4=60].g/ B[Q:1/4=50](TA/>G/)!>)! |!p! G4 z4 |] %32
V:2
!mf! (G/A/)(G/A/) .B.B (A/B/).A/.B/ .c(f- | fg) z2!mp! (G/A/)(G/A/) .B.B | %2
 (A/B/).A/.B/ .c (f2 g) z/!mf! (g/d/=f/) |!<(! e2- e/(f/4g/4f/4g/4e/) d2- d/(b/a/g/) | %4
 (Tgf)!<)! =f2- f.e/.f/ .g=F- | F.E e2- e.d/.e/ .f(g- | gf) g2- g.f/.a/ g2- | %7
 g.f/.a/ g2- g.f/.g/ a(c- | cB)!>(! z =f e2- e/.a/(^f/e/) | d2- d/.g/(e/d/) c2- c/.f/(d/c/) | %10
 .B/d/(c/B/) (TBA)!>)! z2 (A/F/^G/A/) | ^G2- G/(B/A/=G/) A2- A/(A/G/F/) | G2- G/(B/A/G/) (TGF) A2 | %13
 A(G/A/) .B/.c/!<(! d2 .c/.d/ e2- | e.d/.e/ (f/g/)a a>a (gPf/>g/) | %15
 .g!<)!!f!(B/c/) (B/G/)(A/F/) .G!mp!.B/.c/ (d/B/)(c/A/) | %16
 .B!mf!.B/.c/!<(! (B/G/)(A/F/) (G/A/)(G/A/) .B(d/B/) | .c/(e/d/c/) TB2 (c/d/)(c/d/) e2- | %18
 e/!<)!!f!(_b/a/!>(!g/ =f/e/d/^c/) .d/(a/^g/a/) d=b- | b/.c'/(a/^g/)!mf! .a!>)!.e (d/c/B/c/) (BA) | %20
 (TA^G) z2 (A/B/)(A/B/) .c.c | (B/c/)(B/c/) d (^g2 a) z2 | %22
!mp! (A/B/)(A/B/) .c.c (B/c/).B/.c/ d^g- | (ga) z2!mf! (F/G/)(F/G/) .A/.F/c- | %24
 c/.A/B z2!mp! (G/A/)(G/A/) .B.B | (A/B/).A/.B/ .c (f2 g)!<(! z =f | %26
 e2- e/(g/a/e/) fa- a/(a/g/f/) | e2- e/(e/f/^g/) a2- a/(c'/b/a/) | %28
 (^g/b/)!<)!.e/.d/!mf! (c^c d)a- a/(d/=g/=f/) |!>(! (e>d) (c/B/A/G/) .F/.A/d- d/(d/c/B/) | %30
 (A/g/f/e/ d/c/B/A/) .B/(F/G/).A/ G(TF/>G/)!>)! |!p! G4 z4 |] %32
V:3
!mf! .G,.G,, z .G, .D.D, z .D, | .G,.G,, z2 .G,.G,, z .G, | .D.D, z .D, .G,.G,, z .B, | %3
!<(! (CB,A,G, F,)(D,G,C) | .D.D,!<)! z/ (G,/B,/G,/) .C.C, z .G, | C,2 z/ (A,/^C/A,/) .D.D, z .A, | %6
 D,2 z/ (G,/B,/G,/) .D.D, z/ (G,/B,/G,/) | .D.D, z/ (G,/B,/G,/) .D.D, z .D, | %8
 .G,.G,, z .B, .C.C, z .A, | .B,.B,, z .G, .A,.A,, z .F, | G,(CD)D, (DCB,)B,, | %11
 (E,B,^G,E,) (A,A,,)(F,D,) | (G,DB,C) (DD,) z/ (D,/F,/D,/) | %13
 .G,.G,, z!<(! .G, .C.C, z/ (A,/^C/A,/) | .D.D, z (F, G,)(CD).D, | %15
 .G,!<)!.G,, z .D, .G,.G,, z .D, | .G,.G,, z .D, G,2 z =F, | (E,=F,G,)G,, C,2 z/ (C/_B,/C/) | %18
 A,2 z A,, (DCB,)E, | (A,B,C^C D2) z .^D | .E.E, z2 .A,.A,, z .^D, | %21
 E,2 z .E, .A,.A,, (C/A,/)(E/E,/) |!mp! .E,.E,, z .^D, .E,.E,, z .E, | .A,.A,, z2 .D.D, z .D, | %24
 .G,.G,, (B,/G,/)(D/D,/) .G,.G,, z .G, | .D.D, z .D, .G,.G,, z (B,/G,/) | (C^G,A,C) (DF,=G,B,) | %27
 (C^G,)(A,A,,) (A,=G,=F,)=F | (E^G,)!mf!(A,A,,) D,(F,=G,)B,, |!>(! C,2 z C (DF,)(G,C,) | %30
 D,2 z D, (G,/A,/B,/C/) .D.D,!>)! |!p! G,4 z4 |] %32

